X: 117205
T: The TWEEDDALE CLUB
Q: "Strathspey."
R:  Strathspey.
%R: strathspey
B: James Kerr "Merry Melodies" v.1 p.17 s.2 #5
Z: 2017 John Chambers <jc:trillian.mit.edu>
M: C
L: 1/8
K: D
ud |\
vA<uF vd<uA vB>uA F<d | A<F d>F e<E E>d |\
A<F d>A vB>vc ud>uB | A<d F<d E2 D>d |\
A<F d>A B>A F<d | A<F d>F e<E E>d |
A<F d>A B>c d>b | a<d g>f e2 d |]\
vf/ug/ |\
va<ud va>uf vd>ua f<a | b<e b>g e>f g<b |\
a<d a>f d>a fa |
(3gbg (3faf e2 df/g/ |\
a<d a>f d>a f<a | b<e b>g e>f g<b |\
a<f b>g f>e d<A | B<d A<d E2 D |]

%%sep 1 1 500
%%sep 1 1 500

